api/fonts/Adobe Fonts Logo.svg

<svg width="27" height="26" viewBox="0 0 27 26" fill="none" xmlns="http://www.w3.org/2000/svg">
<g clip-path="url(#clip0)">
<path d="M26.6663 0.000183105H-0.000305176V26.0001H26.6663V0.000183105Z" fill="url(#paint0_linear)"/>
<path d="M14.6944 10.8842C14.0718 12.9709 13.5521 14.9855 12.9295 16.9544C12.5761 18.065 12.1891 19.1252 11.7011 19.7982C11.1626 20.5554 10.1529 21.2791 8.94141 21.2791C8.08314 21.2791 7.24176 20.8752 7.24176 19.9833C7.24176 19.428 7.81387 18.9064 8.26824 18.9064C8.53751 18.9064 8.67214 19.0578 8.73941 19.1756C9.16009 19.9329 9.56399 20.3703 9.7491 20.3703C9.9342 20.3703 10.0856 20.118 10.3885 19.0242L12.5911 10.8842H11.0093C10.8914 10.5308 11.0597 10.0933 11.2616 10.0092H12.8434C13.1463 9.03315 13.5016 8.05265 14.0065 7.16079C14.7637 5.79778 15.9753 4.72083 17.6411 4.72083C18.9032 4.72083 19.4248 5.32662 19.4248 6.10073C19.408 6.92521 18.6845 7.3459 18.3479 7.3459C18.0787 7.3459 17.9441 7.144 17.8599 6.85795C17.5739 5.78099 17.2036 5.46125 16.9848 5.46125C16.7662 5.46125 16.4295 5.86505 16.0594 6.70642C15.5714 7.76659 15.2497 8.89862 14.9469 10.0092H16.8652C16.9829 10.2447 16.882 10.7496 16.5959 10.8842H14.6944V10.8842Z" fill="white"/>
</g>
<defs>
<linearGradient id="paint0_linear" x1="13.333" y1="26.0001" x2="13.333" y2="0.000183105" gradientUnits="userSpaceOnUse">
<stop stop-color="#201F21"/>
<stop offset="1" stop-color="#313131"/>
</linearGradient>
<clipPath id="clip0">
<rect width="26.6667" height="26" fill="white"/>
</clipPath>
</defs>
</svg>

<svg width="27" height="26" fill="none" xmlns="http://www.w3.org/2000/svg"><g clip-path="url(#clip0)"><path d="M26.666 0H0v26h26.666V0z" fill="url(#paint0_linear)"/><path d="M14.694 10.884c-.622 2.087-1.142 4.101-1.764 6.07-.354 1.111-.74 2.171-1.229 2.844-.538.757-1.548 1.481-2.76 1.481-.858 0-1.7-.404-1.7-1.296 0-.555.573-1.077 1.027-1.077.27 0 .404.152.471.27.421.757.825 1.194 1.01 1.194.185 0 .337-.252.64-1.346l2.202-8.14H11.01c-.118-.353.05-.79.253-.875h1.581c.303-.976.659-1.956 1.164-2.848.757-1.363 1.968-2.44 3.634-2.44 1.262 0 1.784.606 1.784 1.38-.017.824-.74 1.245-1.077 1.245-.27 0-.404-.202-.488-.488-.286-1.077-.656-1.397-.875-1.397-.219 0-.555.404-.926 1.245-.488 1.06-.81 2.193-1.112 3.303h1.918c.118.236.017.74-.27.875h-1.9z" fill="#fff"/></g><defs><linearGradient id="paint0_linear" x1="13.333" y1="26" x2="13.333" gradientUnits="userSpaceOnUse"><stop stop-color="#201F21"/><stop offset="1" stop-color="#313131"/></linearGradient><clipPath id="clip0"><path fill="#fff" d="M0 0H26.667V26H0z"/></clipPath></defs></svg>
